frontend/static/images/icons/telegram-black-stroke.svg

<svg width="43" height="39" viewBox="0 0 43 39" fill="none" xmlns="http://www.w3.org/2000/svg">
<path d="M2.00076 17.8084L2.0147 17.8038L2.02834 17.7983L39.4829 2.81666C39.9594 2.62606 40.3516 2.52704 40.66 2.50484C40.9682 2.48265 41.1549 2.53917 41.2671 2.61535C41.4672 2.75129 41.6892 3.16066 41.4933 4.27643L34.9508 36.833C34.7661 37.4391 34.0846 37.683 33.572 37.3485L23.1003 29.6961L22.7676 29.453L22.4654 29.7331L16.956 34.8394L16.949 34.8458L16.9423 34.8526C16.5232 35.2717 15.7842 35.0827 15.6266 34.5312L15.6246 34.5241L15.6223 34.517L11.8598 22.6919L11.781 22.4444L11.5333 22.3665L2.13147 19.4117C1.74493 19.2811 1.52418 18.9373 1.50182 18.5795C1.47995 18.2296 1.64586 17.9267 2.00076 17.8084Z" fill="white" stroke="#282C35"/>
<path d="M17.7461 25.5001C17.0743 29.5314 16.3 35 16.3 35L11.6992 22.1407L35.8869 8.03125L37.2313 7.35938L35.8869 8.70313L17.7461 25.5001Z" fill="#282C35"/>
</svg>

<svg width="43" height="39" fill="none" xmlns="http://www.w3.org/2000/svg"><path d="M2 17.808l.015-.004.013-.006L39.483 2.817c.476-.19.869-.29 1.177-.312.308-.022.495.034.607.11.2.136.422.546.226 1.661l-6.542 32.557a.912.912 0 01-1.379.516L23.1 29.696l-.332-.243-.303.28-5.509 5.106-.007.007-.007.007c-.419.419-1.158.23-1.315-.322l-.002-.007-.003-.007-3.762-11.825-.079-.248-.248-.078-9.402-2.954a.929.929 0 01-.63-.832c-.021-.35.145-.653.5-.772z" fill="#fff" stroke="#282C35"/><path d="M17.746 25.5C17.074 29.531 16.3 35 16.3 35l-4.6-12.86L35.886 8.032l1.344-.672-1.344 1.344L17.747 25.5z" fill="#282C35"/></svg>
